X:143
T:Red Haired Girl of Tulloch, The
R:Strathspey
S:MacDonald - Skye Collection
N:pg.69
M:C
L:1/8
K:B Min
Be f>e f<a|A<A c>B A>ce>c|B>Bd>e f>ef>^g|a>fe>c B<B f2:|
d>fB>f d<f B>f|c<e A>e c<e A>e|d<f B>f d<f B>f|a>fe>c B<B f2|
d>fB>f d>fB>f|c>eA.e c>eA>e|Be f>ef>^g|a>fe>c B<B f2||
